X:1
T:Martin Mulvihill's Polka
R:polka
M:2/4
L:1/8
K:D
|: A |\
dc/d/ ed | cA A2 | dc/d/ ef | g2 fe |
dc/d/ ed | cA Ae | f/g/a ec | d2 d :|
|: e |\
f>e fd | g>f ge | f>e fa | ge ce |
f>e fd | g>f ge | f/g/a ec | d2 d :|
